X: 126003
M: 2/4
L: 1/16
K: A
ed |\
c2A2 A2(Bc) | d2B2 B2(ed) |\
c2A2 A2(Bc) | dcBA =G2(ed) |\
c2A2 A2(Bc) | d2B2 B2(ed) |\
c2Ac B2=GB | A4- A2 H|]\
(ed) |\
c2e2e2=g2 | dB=GB d2(cB) |
c2e2 e2(fg) | agfe a2(ed) |\
c2e2e2=g2 | dB=GB d2(ed) |\
c2Ac B2=GB | A4- A2 |]\
(ed) |\
c2A2 A2(Bc) | d2B2 B2(ed) |\
c2A2 A2(Bc) | dcBA =G2(ed) |
c2A2 A2(Bc) | d2B2 B2(ed) |\
c2Ac B2=GB | A4- A2 |]\
(GF) |\
E2e2e2c2 | BcBG EFGE |\
=D2d2d2B2 | ABAF DEFD |\
E2e2e2c2 | BcBG E2(FG) |
E2e2e2c2 | BcBG E2(FG) |\


